X: 37425
T: Sliabh Domhnghairt
R: waltz
M: 3/4
K: Fmajor
|:F2|A2c2c2|defd cB|ABcA GF|G4A2|
A2d2 ^ce|d2D2E2|FAGF EF|D4:|
|:c=B|c3 dcB|c2d2e2|f2e2d2|e4 d^c|
d2D2E2|F2G2A2|dcBA GB|A4AB|
c2Acfd|c2BAGF|B2AFGE|F4:|

